X: 5
T: McKechnie's Farewell
C: John Somerville 2012?
R: air, march
S: https://thesession.org/tunes/12550 2019-7-12
N: "a tribute to my grandparents, Granny (Ann) and Seanair (Neil) McKechnie"
N: (Seanair is Gaelic for grandfather.)
M: 2/4
L: 1/8
K: G
GA |\
"G"B2 Bd | "D/F#"A2 GA | "G"BA Bd | "D/F#"A2 GA |\
"G"B2 Bd | "D"gf ed | "C"de ed | e2 zf |
"C7"gf ed | ed BA | "G/B#"BA Bd | "D/A"A2 GA |\
"G"BA Bd | "D7"AG ED | "C"EG GA | "G"G2 :|
|: Bd |\
"Em"e2 ed | eg f "G"d- | d d dB | de (3BAG |\
"D"A2 AG | AB GA | "Bm"Bd dB | de Bd |
"C"e2 ed | eg f "G"d- | d d dB | de (3BAG |\
"D"A2 AG | AB GE | "C"DG GA | "G"G2 :|
